src/assets/icons/calendar-events,fancy,date-to.svg

<svg width="48" height="48" viewBox="0 0 48 48" fill="none" xmlns="http://www.w3.org/2000/svg">
<g clip-path="url(#clip0_121:1723)">
<g opacity="0.4">
<path d="M10 4C10 2.89543 10.8954 2 12 2C13.1046 2 14 2.89543 14 4V8C14 9.10457 13.1046 10 12 10C10.8954 10 10 9.10457 10 8V4Z" fill="black"/>
<path d="M34 4C34 2.89543 34.8954 2 36 2C37.1046 2 38 2.89543 38 4V8C38 9.10457 37.1046 10 36 10C34.8954 10 34 9.10457 34 8V4Z" fill="black"/>
</g>
<path fill-rule="evenodd" clip-rule="evenodd" d="M10 6.00869C7.52043 6.04456 6.11466 6.22849 5.17157 7.17157C4 8.34315 4 10.2288 4 14V16H44V14C44 10.2288 44 8.34315 42.8284 7.17157C41.8853 6.22849 40.4796 6.04456 38 6.00869V8C38 9.10457 37.1046 10 36 10C34.8954 10 34 9.10457 34 8V6H14V8C14 9.10457 13.1046 10 12 10C10.8954 10 10 9.10457 10 8V6.00869Z" fill="black"/>
<path opacity="0.8" d="M28 33.7773C26.8954 33.7773 26 32.8819 26 31.7773L26 30.2218C26 29.1172 26.8954 28.2218 28 28.2218L39.4 28.2218C40.5045 28.2218 41.4 29.1172 41.4 30.2218L41.4 31.7773C41.4 32.8819 40.5045 33.7773 39.4 33.7773L28 33.7773Z" fill="black"/>
<path d="M39.5213 39.5643L46.607 32.4071C47.3786 31.6277 47.3786 30.3723 46.607 29.5929L39.5213 22.4357C38.7387 21.6451 37.4613 21.6451 36.6787 22.4357L35.643 23.4818C34.8714 24.2612 34.8714 25.5166 35.643 26.296L38.907 29.5929C39.6786 30.3723 39.6786 31.6277 38.907 32.4071L35.643 35.704C34.8714 36.4834 34.8714 37.7388 35.643 38.5182L36.6787 39.5643C37.4613 40.3549 38.7387 40.3549 39.5213 39.5643Z" fill="black"/>
<path opacity="0.2" fill-rule="evenodd" clip-rule="evenodd" d="M5.17157 7.17157C4 8.34315 4 10.2288 4 14V38C4 41.7712 4 43.6569 5.17157 44.8284C6.34315 46 8.22876 46 12 46H36C39.7712 46 41.6569 46 42.8284 44.8284C44 43.6569 44 41.7712 44 38V35.0405L39.5213 39.5644C38.7387 40.3549 37.4614 40.3549 36.6787 39.5644L35.6431 38.5182C34.8715 37.7388 34.8715 36.4834 35.6431 35.704L37.5502 33.7777L28 33.7777C26.8954 33.7777 26 32.8823 26 31.7777V30.2221C26 29.1176 26.8954 28.2221 28 28.2221L37.5499 28.2221L35.6431 26.296C34.8715 25.5166 34.8715 24.2612 35.6431 23.4818L36.6787 22.4357C37.4614 21.6451 38.7387 21.6451 39.5213 22.4357L44 26.9596V14C44 10.2288 44 8.34315 42.8284 7.17157C41.6569 6 39.7712 6 36 6H12C8.22876 6 6.34315 6 5.17157 7.17157Z" fill="black"/>
</g>
<defs>
<clipPath id="clip0_121:1723">
<rect width="48" height="48" fill="white"/>
</clipPath>
</defs>
</svg>

<svg xmlns="http://www.w3.org/2000/svg" width="48" height="48" fill="none" viewBox="0 0 48 48">
  <g clip-path="url(#clip0_121:1723)">
    <g opacity=".4">
      <path fill="#000" d="M10 4a2 2 0 114 0v4a2 2 0 11-4 0V4zM34 4a2 2 0 114 0v4a2 2 0 11-4 0V4z"/>
    </g>
    <path fill="#000" fill-rule="evenodd" d="M10 6.009c-2.48.036-3.885.22-4.828 1.163C4 8.343 4 10.229 4 14v2h40v-2c0-3.771 0-5.657-1.172-6.828-.943-.944-2.348-1.127-4.828-1.163V8a2 2 0 11-4 0V6H14v2a2 2 0 11-4 0V6.009z" clip-rule="evenodd"/>
    <path fill="#000" d="M28 33.777a2 2 0 01-2-2v-1.555a2 2 0 012-2h11.4a2 2 0 012 2v1.555a2 2 0 01-2 2H28z" opacity=".8"/>
    <path fill="#000" d="M39.521 39.564l7.086-7.157a2 2 0 000-2.814l-7.086-7.157a2 2 0 00-2.842 0l-1.036 1.046a2 2 0 000 2.814l3.264 3.297a2 2 0 010 2.814l-3.264 3.297a2 2 0 000 2.814l1.036 1.046a2 2 0 002.842 0z"/>
    <path fill="#000" fill-rule="evenodd" d="M5.172 7.172C4 8.343 4 10.229 4 14v24c0 3.771 0 5.657 1.172 6.828C6.343 46 8.229 46 12 46h24c3.771 0 5.657 0 6.828-1.172C44 43.657 44 41.771 44 38v-2.96l-4.479 4.524a2 2 0 01-2.842 0l-1.036-1.046a2 2 0 010-2.814l1.907-1.926H28a2 2 0 01-2-2v-1.556a2 2 0 012-2h9.55l-1.907-1.926a2 2 0 010-2.814l1.036-1.046a2 2 0 012.842 0L44 26.96V14c0-3.771 0-5.657-1.172-6.828C41.657 6 39.771 6 36 6H12C8.229 6 6.343 6 5.172 7.172z" clip-rule="evenodd" opacity=".2"/>
  </g>
  <defs>
    <clipPath id="clip0_121:1723">
      <path fill="#fff" d="M0 0h48v48H0z"/>
    </clipPath>
  </defs>
</svg>
